X:33
T:Relativity
M:3/4
Q:200
L:1/8
K:Am
A2|: e4 A2 |d4 A2| c2 B2 A2|G2  E3 D|E4 ED|E2 G3 D|E2 G2 EG|1 A4 A2 :|2 A6 ||
e4 de| a4 a2| g4 d2|e2 A4| e4 fe|d4  B2| c4 d2| BA G4|
e4 A2 |d4 A2| c2 B2 A2|G2  E3 D|E4 ED|E2 G3 D|E2 G2 EG|1 A6 :|2 A4 A2 ||
